X: 3023
T: ALDIVALLOCH
Q:"Strathspey."
R: Strathspey.
%R:strathspey
B: James Kerr "Merry Melodies" v.3 p.5 #23
Z: 2016 John Chambers <jc:trillian.mit.edu>
M: C
L: 1/16
K: D
|:\
vAuF3 vF3uE vF3vE (FB3) | AF3 F3D E3D (EF3) |\
AF3 ED3 d3ef3e | edBA d3F E3D (EF3) :|
|:\
A3Bd3f e3fd4 | A3Bd3F E3D EF3 |\
A3Bd3f efgf e2f2 | d3Bd3F E3D (EF3) :|

%%sep 1 1 500
%%sep 1 1 500

